X:1
T:Be Loyal, Pilgrims
T:Be Loyal, Pilgrims
T:George Blackburn Holsinger
T:Harriet E. Rice Jones, 1901
T:Public Domain Courtesy of the Cyber Hymnal™
T:Public Domain Courtesy of the Cyber Hymnal™
C:George Blackburn Holsinger
Z:Public Domain
Z:Courtesy of the Cyber Hymnal™
%%score ( 1 2 ) ( 3 4 )
L:1/8
Q:1/4=93
M:4/4
K:A
V:1 treble 
V:2 treble 
V:3 bass 
V:4 bass 
V:1
 [CE]>[CE] | [CA]>[DB] [Ec]>[DB] [CA]2 [CA]>[EG] | [DF]>[EG] [FA]>[DF] [CE]2 [CE]>[CE] | %3
w: 1.~As the|days are go- ing by, do you|raise God’s ban- ner high Who has|
w: 2.~When the|foes of God a- rise, who His|blest com- mands des- pise, Do you|
w: 3.~Be the|crowd the more, the less, do you|Je- sus’ name con- fess, Do you|
 [CA]>[CA] [EA]>[EB] [Ec]2 [Ae]2 | [Gd]2 [Ac]2 [GB]2 E>E | [Ec]>[Ed] [Ae]>[Ec] [EA]2 [EA]>[EG] | %6
w: bought you with His own most|pre- cious blood? Do you|own your Lord each day, while up-|
w: bold- ly stand for Je- sus|and the right? Are you|found with- in His field, there His|
w: show your col- ors, pil- grims,|ev- ery- where? When be-|fore God’s host you stand, in the|
 [EG]>[DF] [DF]>[DF] [Fd]2 [Fd]>[FB] | [Ec]>[Ec] [CE]>[Ec] [DB]>[CA] [DG]>[DB] | [CA]6 || %9
w: on your pil- grim way, Are you|loy- al to the match- less Son of|God?|
w: might- y sword to wield, Clad in|ar- mor that is ev- er shin- ing|bright?|
w: won- drous glo- ry land, Will your|Lord con- fess you ’mid the an- gels|there?|
"^Refrain" [Ac]>[Bd] | [ce]4- [ce]>[Ec] [EA]>E | [DF]6 [FB]>[Fc] | ([Fd-]4 [Gd]>)[Fd] [Ec]>[EB] | %13
w: O be|faith- * ful, O be|true, to the|One * who died for|
w: ||||
w: ||||
 [Ec]6 [Ac]>[Bd] | [ce]4- [ce]>[Ec] [EA]>E | [DF]6 [DB]>[Fd] | %16
w: you; By and|by * comes sweet re-|ward, That shall|
w: |||
w: |||
 [Ec]>[Ec] [CE]>[Ec] [DB]>[CA] [DG]>[DB] | A6 |] %18
w: last while bliss- ful ag- es roll a-|way.|
w: ||
w: ||
V:2
 x2 | x8 | x8 | x8 | x6 E>E | x8 | x8 | x8 | x6 || x2 | x15/2 E/ | x8 | x8 | x8 | x15/2 E/ | x8 | %16
 x8 | (C2 D2 C2) |] %18
V:3
 [A,,A,]>[A,,A,] | [A,,A,]>[A,,A,] [A,,A,]>[A,,A,] [A,,A,]2 [A,,A,]>[C,A,] | %2
w: ~ ~|~ ~ ~ ~ ~ ~ ~|
 [D,A,]>[D,A,] [D,A,]>[D,A,] [A,,A,]2 [A,,A,]>[A,,A,] | [A,,A,]>[A,,A,] [C,A,]>[E,G,] A,2 [CE]2 | %4
w: ~ ~ ~ ~ ~ ~ ~|~ ~ ~ ~ ~ ~|
 [B,E]2 [A,E]2 [E,E]2 [E,G,]>[E,G,] | A,>[A,B,] [A,C]>[A,C] [A,C]2 [C,A,]>[C,A,] | %6
w: ~ ~ ~ ~ ~|~ ~ ~ ~ ~ ~ ~|
 [D,A,]>[D,A,] [D,A,]>[D,A,] [D,A,]2 [D,A,]>[D,A,] | %7
w: ~ ~ ~ ~ ~ ~ ~|
 [E,A,]>[E,A,] [E,A,]>[E,A,] [E,G,]>[E,A,] [E,B,]>[E,G,] | [A,,A,]6 || z2 | %10
w: ~ ~ ~ ~ ~ ~ ~ ~|~||
 z2 [A,C]>[B,D] [CE]>[A,E] [E,C]>[C,A,] | [D,A,]>[D,A,] [D,A,]>[D,A,] [D,A,]2 [D,B,]>[C,^A,] | %12
w: O be faith- ful to the|One who died for you, Face the|
 [B,,B,]>[B,,B,] [B,,B,]>[B,,B,] [E,B,]>[E,A,] [E,G,]>[E,G,] | %13
w: world with Chris- tian cour- age, For the|
 [A,,A,]>[A,,A,] [C,A,]>[E,A,] A,2 z2 | z2 [A,C]>[B,D] [CE]>[A,E] [E,C]>[C,A,] | %15
w: One who died for you;|By and by comes sweet re-|
 [D,A,]2 [D,A,]>[D,A,] [D,A,]2 [D,A,]>[D,A,] | %16
w: ward, sweet re- ward, ~ ~|
 [E,A,]>[E,A,] [E,A,]>[E,A,] [E,G,]>[E,A,] [E,B,]>[E,G,] | A,2 F,2 E,2 |] %18
w: ~ ~ ~ ~ ~ ~ ~ ~|~ a- way|
V:4
 x2 | x8 | x8 | x4 A,2 x2 | x8 | A,3/2 x13/2 | x8 | x8 | x6 || x2 | x8 | x8 | x8 | x8 | x8 | x8 | %16
 x8 | A,,6 |] %18

